outputs/icons/image/eye_dropper_round.svg

<svg width="1200" height="1200" viewBox="0 0 1200 1200" fill="none" xmlns="http://www.w3.org/2000/svg"><g clip-path="url(#clip0_238_2757)"><path d="M1035.5 281.503L918.5 164.503C899 145.003 867.5 145.003 848 164.503L692 320.503L630.5 260.003C611 240.503 579.5 241.003 560 260.003C540.5 279.503 540.5 311.003 560 330.503L596 366.503L157.5 805.005C152.5 810.005 150 816.005 150 823.005V1025.005C150 1039.005 161 1050.005 175 1050.005H377C383.5 1050.005 390 1047.505 394.5 1042.505L833 604.005L869 640.005C888.5 659.505 920 659.505 939.5 640.005C959 620.505 959 589.005 939.5 569.505L878.5 508.505L1034.5 352.503C1055 332.503 1055 301.003 1035.5 281.503ZM346 950.005L250 854.005L653 451.003L749 547.005L346 950.005Z" fill="#1D1E23"/></g><defs><clipPath id="clip0_238_2757"><path width="24" fill="white" d="M0 0H1200V1200H0V0z"/></clipPath></defs></svg>

<svg xmlns="http://www.w3.org/2000/svg" width="1200" height="1200" fill="none"><g clip-path="url(#a)"><path fill="#000" d="m1035.5 281.503-117-117c-19.5-19.5-51-19.5-70.5 0l-156 156-61.5-60.5c-19.5-19.5-51-19-70.5 0-19.5 19.5-19.5 51 0 70.5l36 36-438.5 438.502q-7.5 7.5-7.5 18v202c0 14 11 25 25 25h202c6.5 0 13-2.5 17.5-7.5l438.5-438.5 36 36c19.5 19.5 51 19.5 70.5 0s19.5-51 0-70.5l-61-61 156-156.002c20.5-20 20.5-51.5 1-71M346 950.005l-96-96 403-403.002 96 96.002z"/></g><defs><clipPath id="a"><path fill="#fff" d="M0 0h1200v1200H0z"/></clipPath></defs></svg>
